; generated by PrusaSlicer 2.7.2+win64 on 2025-01-06 at 20:39:50 UTC


;
;

;
;
; 

; external perimeters extrusion width = 0.45mm
; perimeters extrusion width = 0.45mm
; infill extrusion width = 0.45mm
; solid infill extrusion width = 0.45mm
; top infill extrusion width = 0.40mm
; support material extrusion width = 0.40mm

G10 S210 P1 ; set temperature
;TYPE:Custom
G28 ; home all axes
T0
G10 S210 P1 ; set temperature
M116 ; wait for temperature to be reached
G21 ; set units to millimeters
G90 ; use absolute coordinates
M82 ; use absolute distances for extrusion
G92 E0
T1
G92 E0
; Filament gcode
M107
;LAYER_CHANGE
;Z:0.2
;HEIGHT:0.2
G1 E-.4 F2400
G1 Z.7 F6000
G1 X483.258 Y467.291
G1 Z.2
G1 E0 F2400
;TYPE:Skirt/Brim
;WIDTH:0.45
G1 F1800
G1 X485 Y466.779 E.06146
G1 X515 Y466.779 E1.07692
G1 X516.543 Y467.173 E1.13082
G1 X517.709 Y468.258 E1.18473
G1 X518.221 Y470 E1.24619
G1 X518.221 Y530 E3.27712
G1 X517.827 Y531.543 E3.33102
G1 X516.742 Y532.709 E3.38493
G1 X515 Y533.221 E3.44639
G1 X485 Y533.221 E4.46185
G1 X483.457 Y532.827 E4.51575
G1 X482.291 Y531.742 E4.56966
G1 X481.779 Y530 E4.63112
G1 X481.779 Y470 E6.66205
G1 X482.173 Y468.457 E6.71595
G1 X483.217 Y467.335 E6.76783
G1 X483.217 Y467.335 F6000
G1 X483.524 Y467.652
G1 F1800
G1 X483.648 Y467.532 E6.77367
G1 X485 Y467.186 E6.82091
G1 X515 Y467.186 E7.83637
G1 X516.434 Y467.579 E7.8867
G1 X517.468 Y468.648 E7.93704
G1 X517.814 Y470 E7.98428
G1 X517.814 Y530 E10.01521
G1 X517.421 Y531.434 E10.06554
G1 X516.352 Y532.468 E10.11588
G1 X515 Y532.814 E10.16312
G1 X485 Y532.814 E11.17858
G1 X483.566 Y532.421 E11.22891
G1 X482.532 Y531.352 E11.27925
G1 X482.186 Y530 E11.32649
G1 X482.186 Y470 E13.35742
G1 X482.579 Y468.566 E13.40775
G1 X483.481 Y467.694 E13.45022
G1 X483.481 Y467.694 F6000
G1 X483.762 Y468.025
G1 F1800
G1 X484.032 Y467.796 E13.4622
G1 X485 Y467.593 E13.49568
G1 X515 Y467.593 E14.51114
G1 X516.316 Y467.985 E14.55762
G1 X517.204 Y469.032 E14.60409
G1 X517.407 Y470 E14.63757
G1 X517.407 Y530 E16.6685
G1 X517.015 Y531.316 E16.71498
G1 X515.968 Y532.204 E16.76145
G1 X515 Y532.407 E16.79493
G1 X485 Y532.407 E17.81039
G1 X483.684 Y532.015 E17.85687
G1 X482.796 Y530.968 E17.90334
G1 X482.593 Y530 E17.93682
G1 X482.593 Y470 E19.96775
G1 X482.985 Y468.684 E20.01423
G1 X483.716 Y468.064 E20.04667
G1 E19.64667 F2400
G92 E0
G1 X483.716 Y468.064 Z.7 F6000
G1 X513.961 Y528.961
G1 Z.2
G1 E.4 F2400
;TYPE:Perimeter
;WIDTH:0.449999
G1 F1800
G1 X486.039 Y528.961 E1.34513
G1 X486.039 Y471.039 E3.30572
G1 X513.961 Y471.039 E4.25085
G1 X513.961 Y485 E4.72341
G1 X513.961 Y528.901 E6.2094
G1 X513.961 Y528.901 F6000
G1 X514.368 Y529.368
G1 F1800
G1 X485.632 Y529.368 E7.18208
G1 X485.632 Y470.632 E9.17022
G1 X514.368 Y470.632 E10.1429
G1 X514.368 Y485 E10.62924
G1 X514.368 Y529.308 E12.12901
G1 X514.775 Y529.775 F6000
;TYPE:External perimeter
G1 F1800
G1 X485.225 Y529.775 E13.12924
G1 X485.225 Y470.225 E15.14493
G1 X514.775 Y470.225 E16.14516
G1 X514.775 Y485 E16.64528
G1 X514.775 Y529.715 E18.15883
G1 X514.379 Y529.774 F6000
G1 E17.75883 F2400
G92 E0
G1 Z.7 F6000
G1 X486.986 Y528.839
G1 Z.2
G1 E.4 F2400
;TYPE:Solid infill
;WIDTH:0.451113
G1 F1800
G1 X486.344 Y528.197 E.43082
G1 X486.344 Y527.619 E.45044
G1 X487.381 Y528.656 E.50022
G1 X487.958 Y528.656 E.5198
G1 X486.344 Y527.042 E.59727
G1 X486.344 Y526.465 E.61685
G1 X488.535 Y528.656 E.72202
G1 X489.112 Y528.656 E.7416
G1 X486.344 Y525.888 E.87447
G1 X486.344 Y525.31 E.89409
G1 X489.69 Y528.656 E1.0547
G1 X490.267 Y528.656 E1.07428
G1 X486.344 Y524.733 E1.26259
G1 X486.344 Y524.156 E1.28217
G1 X490.844 Y528.656 E1.49817
G1 X491.421 Y528.656 E1.51775
G1 X486.344 Y523.579 E1.76145
G1 X486.344 Y523.001 E1.78107
G1 X491.999 Y528.656 E2.05251
G1 X492.576 Y528.656 E2.07209
G1 X486.344 Y522.424 E2.37123
G1 X486.344 Y521.847 E2.39081
G1 X493.153 Y528.656 E2.71764
G1 X493.731 Y528.656 E2.73726
G1 X486.344 Y521.269 E3.09184
G1 X486.344 Y520.692 E3.11142
G1 X494.308 Y528.656 E3.49369
G1 X494.885 Y528.656 E3.51327
G1 X486.344 Y520.115 E3.92324
G1 X486.344 Y519.538 E3.94282
G1 X495.462 Y528.656 E4.38049
G1 X496.04 Y528.656 E4.40011
G1 X486.344 Y518.96 E4.86552
G1 X486.344 Y518.383 E4.8851
G1 X496.617 Y528.656 E5.37821
G1 X497.194 Y528.656 E5.39779
G1 X486.344 Y517.806 E5.91859
G1 X486.344 Y517.229 E5.93817
G1 X497.771 Y528.656 E6.48667
G1 X498.349 Y528.656 E6.50629
G1 X486.344 Y516.651 E7.08253
G1 X486.344 Y516.074 E7.10211
G1 X498.926 Y528.656 E7.70605
G1 X499.503 Y528.656 E7.72563
G1 X486.344 Y515.497 E8.35727
G1 X486.344 Y514.919 E8.37689
G1 X500.081 Y528.656 E9.03627
G1 X500.658 Y528.656 E9.05585
G1 X486.344 Y514.342 E9.74293
G1 X486.344 Y513.765 E9.76251
G1 X501.235 Y528.656 E10.47728
G1 X501.812 Y528.656 E10.49686
G1 X486.344 Y513.188 E11.23933
G1 X486.344 Y512.61 E11.25895
G1 X502.39 Y528.656 E12.02916
G1 X502.967 Y528.656 E12.04874
G1 X486.344 Y512.033 E12.84665
G1 X486.344 Y511.456 E12.86623
G1 X503.544 Y528.656 E13.69184
G1 X504.121 Y528.656 E13.71142
G1 X486.344 Y510.879 E14.56472
G1 X486.344 Y510.301 E14.58434
G1 X504.699 Y528.656 E15.46539
G1 X505.276 Y528.656 E15.48497
G1 X486.344 Y509.724 E16.39371
G1 X486.344 Y509.147 E16.41329
G1 X505.853 Y528.656 E17.34973
G1 X506.431 Y528.656 E17.36935
G1 X486.344 Y508.57 E18.33351
G1 X486.344 Y507.992 E18.35313
G1 X507.008 Y528.656 E19.34501
G1 X507.585 Y528.656 E19.36459
G1 X486.344 Y507.415 E20.38417
G1 X486.344 Y506.838 E20.40375
G1 X508.162 Y528.656 E21.45102
G1 X508.74 Y528.656 E21.47064
G1 X486.344 Y506.26 E22.54566
G1 X486.344 Y505.683 E22.56524
G1 X509.317 Y528.656 E23.66795
G1 X509.894 Y528.656 E23.68753
G1 X486.344 Y505.106 E24.81794
G1 X486.344 Y504.529 E24.83752
G1 X510.471 Y528.656 E25.99562
G1 X511.049 Y528.656 E26.01524
G1 X486.344 Y503.951 E27.20109
G1 X486.344 Y503.374 E27.22067
G1 X511.626 Y528.656 E28.43422
G1 X512.203 Y528.656 E28.4538
G1 X486.344 Y502.797 E29.69504
G1 X486.344 Y502.22 E29.71462
G1 X512.781 Y528.656 E30.98358
G1 X513.358 Y528.656 E31.00316
G1 X486.344 Y501.642 E32.29984
G1 X486.344 Y501.065 E32.31942
G1 X513.656 Y528.376 E33.63038
G1 X513.656 Y527.799 E33.64996
G1 X486.344 Y500.488 E34.96092
G1 X486.344 Y499.91 E34.98054
G1 X513.656 Y527.221 E36.2915
G1 X513.656 Y526.644 E36.31108
G1 X486.344 Y499.333 E37.62204
G1 X486.344 Y498.756 E37.64162
G1 X513.656 Y526.067 E38.95258
G1 X513.656 Y525.49 E38.97216
G1 X486.344 Y498.179 E40.28312
G1 X486.344 Y497.601 E40.30274
G1 X513.656 Y524.912 E41.6137
G1 X513.656 Y524.335 E41.63328
G1 X486.344 Y497.024 E42.94424
G1 X486.344 Y496.447 E42.96382
G1 X513.656 Y523.758 E44.27478
G1 X513.656 Y523.181 E44.29436
G1 X486.344 Y495.87 E45.60532
G1 X486.344 Y495.292 E45.62494
G1 X513.656 Y522.603 E46.9359
G1 X513.656 Y522.026 E46.95548
G1 X486.344 Y494.715 E48.26644
G1 X486.344 Y494.138 E48.28602
G1 X513.656 Y521.449 E49.59698
G1 X513.656 Y520.871 E49.6166
G1 X486.344 Y493.56 E50.92756
G1 X486.344 Y492.983 E50.94714
G1 X513.656 Y520.294 E52.2581
G1 X513.656 Y519.717 E52.27768
G1 X486.344 Y492.406 E53.58864
G1 X486.344 Y491.829 E53.60822
G1 X513.656 Y519.14 E54.91918
G1 X513.656 Y518.562 E54.9388
G1 X486.344 Y491.251 E56.24976
G1 X486.344 Y490.674 E56.26934
G1 X513.656 Y517.985 E57.5803
G1 X513.656 Y517.408 E57.59988
G1 X486.344 Y490.097 E58.91084
G1 X486.344 Y489.52 E58.93042
G1 X513.656 Y516.831 E60.24138
G1 X513.656 Y516.253 E60.261
G1 X486.344 Y488.942 E61.57196
G1 X486.344 Y488.365 E61.59154
G1 X513.656 Y515.676 E62.9025
G1 X513.656 Y515.099 E62.92208
G1 X486.344 Y487.788 E64.23304
G1 X486.344 Y487.21 E64.25266
G1 X513.656 Y514.522 E65.56365
G1 X513.656 Y513.944 E65.58327
G1 X486.344 Y486.633 E66.89423
G1 X486.344 Y486.056 E66.91381
G1 X513.656 Y513.367 E68.22477
G1 X513.656 Y512.79 E68.24435
G1 X486.344 Y485.479 E69.55531
G1 X486.344 Y484.901 E69.57493
G1 X513.656 Y512.212 E70.88589
G1 X513.656 Y511.635 E70.90547
G1 X486.344 Y484.324 E72.21643
G1 X486.344 Y483.747 E72.23601
G1 X513.656 Y511.058 E73.54697
G1 X513.656 Y510.481 E73.56655
G1 X486.344 Y483.17 E74.87751
G1 X486.344 Y482.592 E74.89713
G1 X513.656 Y509.903 E76.20809
G1 X513.656 Y509.326 E76.22767
G1 X486.344 Y482.015 E77.53863
G1 X486.344 Y481.438 E77.55821
G1 X513.656 Y508.749 E78.86917
G1 X513.656 Y508.172 E78.88875
G1 X486.344 Y480.86 E80.19974
G1 X486.344 Y480.283 E80.21932
G1 X513.656 Y507.594 E81.53028
G1 X513.656 Y507.017 E81.54986
G1 X486.344 Y479.706 E82.86082
G1 X486.344 Y479.129 E82.8804
G1 X513.656 Y506.44 E84.19136
G1 X513.656 Y505.862 E84.21098
G1 X486.344 Y478.551 E85.52194
G1 X486.344 Y477.974 E85.54152
G1 X513.656 Y505.285 E86.85248
G1 X513.656 Y504.708 E86.87206
G1 X486.344 Y477.397 E88.18302
G1 X486.344 Y476.82 E88.2026
G1 X513.656 Y504.131 E89.51356
G1 X513.656 Y503.553 E89.53318
G1 X486.344 Y476.242 E90.84414
G1 X486.344 Y475.665 E90.86372
G1 X513.656 Y502.976 E92.17468
G1 X513.656 Y502.399 E92.19426
G1 X486.344 Y475.088 E93.50522
G1 X486.344 Y474.51 E93.52484
G1 X513.656 Y501.822 E94.83583
G1 X513.656 Y501.244 E94.85545
G1 X486.344 Y473.933 E96.16641
G1 X486.344 Y473.356 E96.18599
G1 X513.656 Y500.667 E97.49695
G1 X513.656 Y500.09 E97.51653
G1 X486.344 Y472.779 E98.82749
G1 X486.344 Y472.201 E98.84711
G1 X513.656 Y499.512 E100.15807
G1 X513.656 Y498.935 E100.17765
G1 X486.344 Y471.624 E101.48861
G1 X486.344 Y471.344 E101.49811
G1 X486.642 Y471.344 E101.50822
G1 X513.656 Y498.358 E102.8049
G1 X513.656 Y497.781 E102.82448
G1 X487.219 Y471.344 E104.09347
G1 X487.797 Y471.344 E104.11309
G1 X513.656 Y497.203 E105.35433
G1 X513.656 Y496.626 E105.37391
G1 X488.374 Y471.344 E106.58746
G1 X488.951 Y471.344 E106.60704
G1 X513.656 Y496.049 E107.79289
G1 X513.656 Y495.472 E107.81247
G1 X489.528 Y471.344 E108.97062
G1 X490.106 Y471.344 E108.99024
G1 X513.656 Y494.894 E110.12065
G1 X513.656 Y494.317 E110.14023
G1 X490.683 Y471.344 E111.24294
G1 X491.26 Y471.344 E111.26252
G1 X513.656 Y493.74 E112.33754
G1 X513.656 Y493.162 E112.35716
G1 X491.838 Y471.344 E113.40443
G1 X492.415 Y471.344 E113.42401
G1 X513.656 Y492.585 E114.44359
G1 X513.656 Y492.008 E114.46317
G1 X492.992 Y471.344 E115.45505
G1 X493.569 Y471.344 E115.47463
G1 X513.656 Y491.431 E116.43881
G1 X513.656 Y490.853 E116.45843
G1 X494.147 Y471.344 E117.39487
G1 X494.724 Y471.344 E117.41445
G1 X513.656 Y490.276 E118.32319
G1 X513.656 Y489.699 E118.34277
G1 X495.301 Y471.344 E119.22382
G1 X495.878 Y471.344 E119.2434
G1 X513.656 Y489.122 E120.09675
G1 X513.656 Y488.544 E120.11637
G1 X496.456 Y471.344 E120.94198
G1 X497.033 Y471.344 E120.96156
G1 X513.656 Y487.967 E121.75947
G1 X513.656 Y487.39 E121.77905
G1 X497.61 Y471.344 E122.54926
G1 X498.188 Y471.344 E122.56888
G1 X513.656 Y486.812 E123.31135
G1 X513.656 Y486.235 E123.33093
G1 X498.765 Y471.344 E124.0457
G1 X499.342 Y471.344 E124.06528
G1 X513.656 Y485.658 E124.75236
G1 X513.656 Y485.081 E124.77194
G1 X499.919 Y471.344 E125.43132
G1 X500.497 Y471.344 E125.45094
G1 X513.656 Y484.503 E126.08258
G1 X513.656 Y483.926 E126.10216
G1 X501.074 Y471.344 E126.7061
G1 X501.651 Y471.344 E126.72568
G1 X513.656 Y483.349 E127.30192
G1 X513.656 Y482.772 E127.3215
G1 X502.228 Y471.344 E127.87005
G1 X502.806 Y471.344 E127.88967
G1 X513.656 Y482.194 E128.41047
G1 X513.656 Y481.617 E128.43005
G1 X503.383 Y471.344 E128.92316
G1 X503.96 Y471.344 E128.94274
G1 X513.656 Y481.04 E129.40815
G1 X513.656 Y480.462 E129.42777
G1 X504.538 Y471.344 E129.86544
G1 X505.115 Y471.344 E129.88502
G1 X513.656 Y479.885 E130.29499
G1 X513.656 Y479.308 E130.31457
G1 X505.692 Y471.344 E130.69684
G1 X506.269 Y471.344 E130.71642
G1 X513.656 Y478.731 E131.071
G1 X513.656 Y478.153 E131.09062
G1 X506.847 Y471.344 E131.41745
G1 X507.424 Y471.344 E131.43703
G1 X513.656 Y477.576 E131.73617
G1 X513.656 Y476.999 E131.75575
G1 X508.001 Y471.344 E132.02719
G1 X508.578 Y471.344 E132.04677
G1 X513.656 Y476.422 E132.29052
G1 X513.656 Y475.844 E132.31014
G1 X509.156 Y471.344 E132.52614
G1 X509.733 Y471.344 E132.54572
G1 X513.656 Y475.267 E132.73403
G1 X513.656 Y474.69 E132.75361
G1 X510.31 Y471.344 E132.91422
G1 X510.888 Y471.344 E132.93384
G1 X513.656 Y474.112 E133.06671
G1 X513.656 Y473.535 E133.08629
G1 X511.465 Y471.344 E133.19146
G1 X512.042 Y471.344 E133.21104
G1 X513.656 Y472.958 E133.28851
G1 X513.656 Y472.381 E133.30809
G1 X512.619 Y471.344 E133.35787
G1 X513.197 Y471.344 E133.37749
G1 X513.839 Y471.987 E133.40833
M106 S255
;LAYER_CHANGE
;Z:0.4
;HEIGHT:0.2
G1 Z.4 F6000
G1 E133.00833 F2400
G1 Z.9 F6000
G1 X513.961 Y528.961
G1 Z.4
G1 E133.40833 F2400
;TYPE:Perimeter
;WIDTH:0.449999
G1 X486.039 Y528.961 E134.35346
G1 X486.039 Y471.039 E136.31405
G1 X513.961 Y471.039 E137.25918
G1 X513.961 Y485 E137.73174
G1 X513.961 Y528.901 E139.21773
G1 X513.961 Y528.901 F6000
G1 X514.368 Y529.368
G1 F2400
G1 X485.632 Y529.368 E140.19041
G1 X485.632 Y470.632 E142.17855
G1 X514.368 Y470.632 E143.15123
G1 X514.368 Y485 E143.63757
G1 X514.368 Y529.308 E145.13734
G1 X514.775 Y529.775 F6000
;TYPE:External perimeter
G1 F1200
G1 X485.225 Y529.775 E146.13757
G1 X485.225 Y470.225 E148.15326
G1 X514.775 Y470.225 E149.15349
G1 X514.775 Y485 E149.65361
G1 X514.775 Y529.715 E151.16716
G1 X514.379 Y529.774 F6000
G1 E150.76716 F2400
G92 E0
G1 Z.9 F6000
G1 X486.455 Y471.377
G1 Z.4
G1 E.4 F2400
;TYPE:Solid infill
;WIDTH:0.548766
G1 X486.41 Y471.333 E.40265
G1 X486.349 Y471.349 E.4053
G1 X486.333 Y471.41 E.40795
G1 X486.378 Y471.455 E.41063
G1 X486.439 Y471.439 E.41328
G1 X486.439 Y471.439 F6000
G1 X486.212 Y472.234
;WIDTH:0.38292
G1 F2400
G1 X486.141 Y472.215 E.41536
G1 X486.16 Y472.286 E.41744
G1 X486.201 Y472.275 E.41864
;WIDTH:0.41646
G1 X486.273 Y472.182 E.42229
;WIDTH:0.449999
G1 X486.344 Y472.089 E.42625
G1 X487.089 Y471.344 E.46191
G1 X487.182 Y471.273 E.46587
;WIDTH:0.41646
G1 X487.275 Y471.201 E.46952
;WIDTH:0.38292
G1 X487.234 Y471.212 E.47072
G1 X487.215 Y471.141 E.4728
G1 X487.286 Y471.16 E.47488
;WIDTH:0.449999
G1 X487.664 Y471.344 E.48911
G1 X486.344 Y472.664 E.5523
G1 X486.344 Y473.24 E.5718
G1 X488.24 Y471.344 E.66256
G1 X488.816 Y471.344 E.68206
G1 X486.344 Y473.816 E.80039
G1 X486.344 Y474.392 E.81989
G1 X489.392 Y471.344 E.9658
G1 X489.967 Y471.344 E.98526
G1 X486.344 Y474.967 E1.15869
G1 X486.344 Y475.543 E1.17819
G1 X490.543 Y471.344 E1.37919
G1 X491.119 Y471.344 E1.39869
G1 X486.344 Y476.119 E1.62727
G1 X486.344 Y476.694 E1.64673
G1 X491.694 Y471.344 E1.90283
G1 X492.27 Y471.344 E1.92233
G1 X486.344 Y477.27 E2.206
G1 X486.344 Y477.846 E2.2255
G1 X492.846 Y471.344 E2.53675
G1 X493.421 Y471.344 E2.55621
G1 X486.344 Y478.421 E2.89498
G1 X486.344 Y478.997 E2.91448
G1 X493.997 Y471.344 E3.28082
G1 X494.573 Y471.344 E3.30032
G1 X486.344 Y479.573 E3.69424
G1 X486.344 Y480.149 E3.71374
G1 X495.149 Y471.344 E4.13523
G1 X495.724 Y471.344 E4.15469
G1 X486.344 Y480.724 E4.6037
G1 X486.344 Y481.3 E4.6232
G1 X496.3 Y471.344 E5.09979
G1 X496.876 Y471.344 E5.11929
G1 X486.344 Y481.876 E5.62345
G1 X486.344 Y482.451 E5.64291
G1 X497.451 Y471.344 E6.1746
G1 X498.027 Y471.344 E6.1941
G1 X486.344 Y483.027 E6.75336
G1 X486.344 Y483.603 E6.77286
G1 X498.603 Y471.344 E7.35969
G1 X499.178 Y471.344 E7.37915
G1 X486.344 Y484.178 E7.99351
G1 X486.344 Y484.754 E8.01301
G1 X499.754 Y471.344 E8.65494
G1 X500.33 Y471.344 E8.67444
G1 X486.344 Y485.33 E9.34394
G1 X486.344 Y485.906 E9.36344
G1 X500.906 Y471.344 E10.06051
G1 X501.481 Y471.344 E10.07997
G1 X486.344 Y486.481 E10.80457
G1 X486.344 Y487.057 E10.82407
G1 X502.057 Y471.344 E11.57624
G1 X502.633 Y471.344 E11.59574
G1 X486.344 Y487.633 E12.37548
G1 X486.344 Y488.208 E12.39494
G1 X503.208 Y471.344 E13.20221
G1 X503.784 Y471.344 E13.22171
G1 X486.344 Y488.784 E14.05655
G1 X486.344 Y489.36 E14.07605
G1 X504.36 Y471.344 E14.93846
G1 X504.935 Y471.344 E14.95792
G1 X486.344 Y489.935 E15.84786
G1 X486.344 Y490.511 E15.86736
G1 X505.511 Y471.344 E16.78487
G1 X506.087 Y471.344 E16.80437
G1 X486.344 Y491.087 E17.74946
G1 X486.344 Y491.662 E17.76892
G1 X506.662 Y471.344 E18.74153
G1 X507.238 Y471.344 E18.76103
G1 X486.344 Y492.238 E19.76121
G1 X486.344 Y492.814 E19.78071
G1 X507.814 Y471.344 E20.80847
G1 X508.39 Y471.344 E20.82797
G1 X486.344 Y493.39 E21.8833
G1 X486.344 Y493.965 E21.90276
G1 X508.965 Y471.344 E22.98561
G1 X509.541 Y471.344 E23.00511
